app/img/_src/main/advantages-of-lab/adv-1.svg

<svg width="60" height="60" viewBox="0 0 60 60" fill="none" xmlns="http://www.w3.org/2000/svg">
<g clip-path="url(#clip0)">
<path d="M59.8843 32.7716C59.3456 27.353 56.9248 22.2446 53.0677 18.3873C49.7714 15.0911 45.7368 12.9729 41.4915 12.031V9.0535C43.2254 8.62213 44.5142 7.05261 44.5142 5.18707C44.5142 2.99001 42.7269 1.20264 40.5298 1.20264H32.0922C29.8951 1.20264 28.1077 2.99001 28.1077 5.18707C28.1077 7.05249 29.3966 8.62201 31.1304 9.0535V12.0394C26.8981 12.9852 22.8769 15.1005 19.59 18.3874C18.8706 19.1067 18.2074 19.8613 17.6002 20.6455C17.5708 20.6433 17.5414 20.6411 17.5114 20.6411H9.16034C8.51322 20.6411 7.98844 21.1657 7.98844 21.813C7.98844 22.4602 8.51322 22.9848 9.16034 22.9848H16.0056C15.1464 24.4233 14.4535 25.934 13.9262 27.4891H1.17189C0.524774 27.4891 0 28.0138 0 28.661C0 29.3083 0.524774 29.8329 1.17189 29.8329H13.264C12.9262 31.3155 12.7324 32.8243 12.6823 34.3373H7.50012C6.853 34.3373 6.32822 34.862 6.32822 35.5092C6.32822 36.1565 6.853 36.6811 7.50012 36.6811H12.7197C12.8186 38.198 13.0625 39.7069 13.4515 41.1855H5.85947C5.21235 41.1855 4.68757 41.7102 4.68757 42.3574C4.68757 43.0047 5.21235 43.5293 5.85947 43.5293H14.1994C15.349 46.5705 17.1456 49.4209 19.59 51.8652C23.4509 55.7261 28.5645 58.1475 33.9888 58.6834C34.7629 58.7598 35.5377 58.7977 36.3113 58.7977C40.8843 58.7977 45.3991 57.4743 49.2301 54.9795C49.7724 54.6263 49.9258 53.9003 49.5726 53.358C49.2194 52.8156 48.4934 52.6622 47.9511 53.0154C39.5653 58.4761 28.3347 57.2954 21.2472 50.2079C12.9313 41.8919 12.9313 28.3609 21.2472 20.0448C29.5631 11.7289 43.0941 11.7289 51.4103 20.0448C58.4884 27.123 59.6755 38.344 54.2329 46.7256C53.8804 47.2685 54.0347 47.9943 54.5774 48.3467C55.1205 48.6992 55.8461 48.5449 56.1985 48.0021C59.1064 43.5237 60.4154 38.1148 59.8843 32.7716ZM30.4515 5.18719C30.4515 4.28249 31.1875 3.54654 32.0922 3.54654H40.5298C41.4345 3.54654 42.1705 4.28249 42.1705 5.18719C42.1705 6.09189 41.4345 6.82784 40.5298 6.82784H40.3196H32.3023H32.0922C31.1875 6.82784 30.4515 6.09177 30.4515 5.18719ZM33.4742 11.6365V9.17163H39.1477V11.6323C37.2637 11.4082 35.3578 11.4096 33.4742 11.6365Z" fill="#8888D3"/>
<path d="M52.2395 49.8638C51.9301 49.8638 51.6289 49.9892 51.4111 50.2071C51.1919 50.4251 51.0676 50.7274 51.0676 51.0356C51.0676 51.3438 51.1919 51.6462 51.4111 51.8642C51.6289 52.0833 51.9302 52.2075 52.2395 52.2075C52.5477 52.2075 52.8488 52.0833 53.068 51.8642C53.286 51.6462 53.4113 51.3438 53.4113 51.0356C53.4113 50.7274 53.2861 50.4251 53.068 50.2071C52.8488 49.9892 52.5476 49.8638 52.2395 49.8638Z" fill="#8888D3"/>
<path d="M36.3288 16.9465C26.3047 16.9465 18.1494 25.1017 18.1494 35.126C18.1494 45.1503 26.3047 53.3055 36.3288 53.3055C46.353 53.3055 54.5083 45.1503 54.5083 35.126C54.5083 25.1017 46.353 16.9465 36.3288 16.9465ZM36.3288 50.9617C27.5969 50.9617 20.4931 43.8578 20.4931 35.126C20.4931 26.3942 27.5969 19.2903 36.3288 19.2903C45.0607 19.2903 52.1645 26.3942 52.1645 35.126C52.1645 43.8578 45.0607 50.9617 36.3288 50.9617Z" fill="#8888D3"/>
<path d="M43.7417 26.0561L37.9374 31.8604C37.452 31.6204 36.906 31.4848 36.3288 31.4848C35.7515 31.4848 35.2057 31.6204 34.7203 31.8604L32.1225 29.2626C31.6648 28.805 30.923 28.805 30.4651 29.2626C30.0075 29.7203 30.0075 30.4623 30.4651 30.9199L33.0629 33.5177C32.8227 34.0031 32.6873 34.5491 32.6873 35.1262C32.6873 37.1341 34.3208 38.7678 36.3288 38.7678C38.3369 38.7678 39.9704 37.1341 39.9704 35.1262C39.9704 34.5491 39.8348 34.0031 39.5948 33.5177L45.2288 27.8837L45.399 27.7134C45.8566 27.2558 45.8566 26.5137 45.399 26.0561C44.9414 25.5985 44.1996 25.5985 43.7417 26.0561ZM36.3288 36.4241C35.6133 36.4241 35.0311 35.8419 35.0311 35.1263C35.0311 34.4108 35.6133 33.8286 36.3288 33.8286C37.0444 33.8286 37.6266 34.4108 37.6266 35.1263C37.6266 35.8419 37.0444 36.4241 36.3288 36.4241Z" fill="#8888D3"/>
<path d="M48.8585 33.9688H47.7728C47.1257 33.9688 46.6009 34.4934 46.6009 35.1406C46.6009 35.7879 47.1257 36.3125 47.7728 36.3125H48.8585C49.5056 36.3125 50.0304 35.7879 50.0304 35.1406C50.0304 34.4934 49.5056 33.9688 48.8585 33.9688Z" fill="#8888D3"/>
<path d="M24.8846 33.9399H23.799C23.1519 33.9399 22.6271 34.4646 22.6271 35.1118C22.6271 35.759 23.1519 36.2837 23.799 36.2837H24.8846C25.5317 36.2837 26.0565 35.759 26.0565 35.1118C26.0565 34.4646 25.5317 33.9399 24.8846 33.9399Z" fill="#8888D3"/>
<path d="M36.3431 24.8539C36.9902 24.8539 37.515 24.3293 37.515 23.6821V22.5964C37.515 21.9492 36.9902 21.4246 36.3431 21.4246C35.696 21.4246 35.1712 21.9492 35.1712 22.5964V23.6821C35.1712 24.3293 35.696 24.8539 36.3431 24.8539Z" fill="#8888D3"/>
<path d="M36.3145 45.3984C35.6674 45.3984 35.1426 45.9231 35.1426 46.5703V47.6559C35.1426 48.3032 35.6674 48.8278 36.3145 48.8278C36.9616 48.8278 37.4864 48.3032 37.4864 47.6559V46.5703C37.4864 45.9231 36.9616 45.3984 36.3145 45.3984Z" fill="#8888D3"/>
<path d="M1.17188 41.1853C0.863672 41.1853 0.561328 41.3107 0.343359 41.5287C0.125391 41.7466 0 42.049 0 42.3572C0 42.6666 0.125273 42.9677 0.343359 43.1857C0.561445 43.4037 0.863672 43.5291 1.17188 43.5291C1.48008 43.5291 1.78242 43.4037 2.00027 43.1857C2.21824 42.9677 2.34375 42.6654 2.34375 42.3572C2.34375 42.049 2.21836 41.7466 2.00027 41.5287C1.78242 41.3107 1.48008 41.1853 1.17188 41.1853Z" fill="#8888D3"/>
</g>
<defs>
<clipPath id="clip0">
<rect width="60" height="60" fill="white"/>
</clipPath>
</defs>
</svg>

<svg width="60" height="60" fill="none" xmlns="http://www.w3.org/2000/svg"><g clip-path="url(#clip0)" fill="#8888D3"><path d="M59.884 32.772a23.717 23.717 0 00-6.816-14.385 23.532 23.532 0 00-11.576-6.356V9.053a3.99 3.99 0 003.022-3.866 3.989 3.989 0 00-3.984-3.984h-8.438a3.989 3.989 0 00-3.984 3.984 3.991 3.991 0 003.022 3.866v2.986a23.53 23.53 0 00-11.54 6.348c-.72.72-1.383 1.474-1.99 2.258-.03-.002-.059-.004-.089-.004h-8.35a1.172 1.172 0 000 2.344h6.845a23.492 23.492 0 00-2.08 4.504H1.172a1.172 1.172 0 000 2.344h12.092a23.828 23.828 0 00-.582 4.504H7.5a1.172 1.172 0 000 2.344h5.22c.099 1.517.342 3.026.731 4.505H5.86a1.172 1.172 0 000 2.343h8.34a23.533 23.533 0 005.391 8.336 23.716 23.716 0 0014.399 6.818 23.729 23.729 0 0015.24-3.703 1.172 1.172 0 00-1.279-1.964c-8.386 5.461-19.616 4.28-26.704-2.807-8.316-8.316-8.316-21.847 0-30.163 8.316-8.316 21.847-8.316 30.163 0 7.078 7.078 8.266 18.299 2.823 26.68a1.172 1.172 0 001.966 1.277 23.748 23.748 0 003.685-15.23zM30.451 5.187c0-.905.736-1.64 1.641-1.64h8.438c.904 0 1.64.735 1.64 1.64 0 .905-.736 1.64-1.64 1.64h-8.438c-.904 0-1.64-.735-1.64-1.64zm3.023 6.45V9.171h5.674v2.46a23.875 23.875 0 00-5.674.005z"/><path d="M52.24 49.864a1.176 1.176 0 00-1.172 1.172 1.176 1.176 0 001.172 1.172c.308 0 .609-.125.828-.344a1.18 1.18 0 00.343-.828c0-.309-.125-.61-.343-.829a1.183 1.183 0 00-.828-.343zM36.329 16.947c-10.024 0-18.18 8.155-18.18 18.179s8.156 18.18 18.18 18.18 18.18-8.156 18.18-18.18-8.156-18.18-18.18-18.18zm0 34.015c-8.732 0-15.836-7.104-15.836-15.836S27.597 19.29 36.33 19.29s15.835 7.104 15.835 15.836-7.103 15.836-15.835 15.836z"/><path d="M43.742 26.056l-5.805 5.804a3.62 3.62 0 00-1.608-.375 3.62 3.62 0 00-1.609.375l-2.597-2.597a1.172 1.172 0 00-1.658 1.657l2.598 2.598a3.617 3.617 0 00-.376 1.608 3.646 3.646 0 003.642 3.642 3.646 3.646 0 003.641-3.642 3.62 3.62 0 00-.375-1.608l5.634-5.634.17-.17a1.172 1.172 0 00-1.657-1.658zm-7.413 10.368a1.3 1.3 0 01-1.298-1.298 1.3 1.3 0 011.298-1.297 1.3 1.3 0 011.298 1.297 1.3 1.3 0 01-1.298 1.298zm12.529-2.455h-1.085a1.172 1.172 0 000 2.343h1.085a1.172 1.172 0 000-2.343zm-23.973-.029h-1.086a1.172 1.172 0 000 2.344h1.086a1.172 1.172 0 000-2.344zm11.458-9.086c.647 0 1.172-.525 1.172-1.172v-1.086a1.172 1.172 0 00-2.344 0v1.086c0 .647.525 1.172 1.172 1.172zm-.028 20.544c-.648 0-1.172.525-1.172 1.172v1.086a1.172 1.172 0 002.343 0V46.57c0-.647-.524-1.172-1.171-1.172zM1.172 41.185c-.308 0-.61.126-.829.344a1.18 1.18 0 00-.343.828c0 .31.125.61.343.829.218.218.52.343.829.343.308 0 .61-.125.828-.343a1.18 1.18 0 00.344-.829c0-.308-.126-.61-.344-.828a1.18 1.18 0 00-.828-.344z"/></g><defs><clipPath id="clip0"><path fill="#fff" d="M0 0h60v60H0z"/></clipPath></defs></svg>
